X:1
T:Epiphany (Thrupp), 11.10.11.10
T:Epiphany (Thrupp), 11.10.11.10
T:Joseph Francis Thrupp, 1853
T:Public Domain Courtesy of the Cyber Hymnal™
C:Joseph Francis Thrupp, 1853
Z:Public Domain
Z:Courtesy of the Cyber Hymnal™
%%score ( 1 2 ) ( 3 4 )
L:1/8
M:none
K:D
V:1 treble 
V:2 treble 
V:3 bass 
V:4 bass 
V:1
 [DF]4 [DE]2 D2 | [EA]4 [EB]2 [Ec]2 | [Dd]4 [Dc]2 [DB]2 | (A2 G2) [DF]4 | [CE]4 D2 D2 | %5
 [CG]4 [DF]2 [DF]2 | [DB]4 [EG]3 [B,F] | [CE]8 | [DA]4 [Fd]2 [Fd]2 | ([Ec]2 [CA]2) [EG]2 [EG]2 | %10
 [DF]4 [EB]2 [EB]2 | [EA]4 [Ec]4 | [Dd]4 [Dd]2 [Dd]2 | [Ed]4 [Ec]2 [EB]2 | [FA]4 [CE]2 [CF]2 | %15
 D8 |] %16
V:2
 x6 D2 | x8 | x8 | E4 x4 | x4 D2 D2 | x8 | x8 | x8 | x8 | x8 | x8 | x8 | x8 | x8 | x8 | D8 |] %16
V:3
 [D,A,]4 [D,G,]2 [D,F,]2 | [C,A,]4 [C,A,]2 [C,A,]2 | [B,,F,]4 [B,,F,]2 [B,,F,]2 | [C,A,]4 [D,A,]4 | %4
 [G,A,]4 [F,A,]2 [F,A,]2 | [E,A,]4 [D,A,]2 [D,A,]2 | G,4 [E,G,]2 [E,G,]2 | [A,,A,]8 | %8
 [F,A,]4 [D,A,]2 [D,A,]2 | [A,,E]4 [A,C]2 [A,C]2 | [B,D]4 [^G,D]2 [G,D]2 | [A,,C]4 A,4 | %12
 ([F,A,]2 [D,F,]2) [E,G,]2 [F,A,]2 | [G,B,]4 [G,,C]2 [G,,D]2 | [A,,D]4 [A,,G,]2 [A,,G,]2 | %15
 [D,F,]8 |] %16
V:4
 x8 | x8 | x8 | x8 | x8 | x8 | G,4 x4 | x8 | x8 | x8 | x8 | x4 (A,2 G,2) | x8 | x8 | x8 | x8 |] %16

